;FLAVOR:Marlin
;TIME:7890
;Filament used: 6.14736m
;Layer height: 0.16
;MINX:56.493
;MINY:73.95
;MINZ:0.24
;MAXX:178.51
;MAXY:163.939
;MAXZ:12.79
;Generated with Cura_SteamEngine 5.2.2
M140 S60
M105
M190 S60
M104 S210
M105
M109 S210
M82 ;absolute extrusion mode
; Ender 3 Custom Start G-code
G92 E0 ; Reset Extruder
G28 ; Home all axes
G1 Z2.0 F3000 ; Move Z Axis up little to prevent scratching of Heat Bed
G1 X0.1 Y20 Z0.3 F5000.0 ; Move to start position
G1 X0.1 Y200.0 Z0.3 F1500.0 E15 ; Draw the first line
G1 X0.4 Y200.0 Z0.3 F5000.0 ; Move to side a little
G1 X0.4 Y20 Z0.3 F1500.0 E30 ; Draw the second line
G92 E0 ; Reset Extruder
G1 Z2.0 F3000 ; Move Z Axis up little to prevent scratching of Heat Bed
G1 X5 Y20 Z0.3 F5000.0 ; Move over to prevent blob squish
G92 E0
G92 E0
G1 F2700 E-5
;LAYER_COUNT:71
;LAYER:-6
M107
G0 F12000 X65.926 Y80.207 Z0.24
;TYPE:SUPPORT-INTERFACE
G1 F2700 E0
G1 F1800 X65.346 Y80.782 E0.06519
G1 X64.754 Y81.414 E0.13432
G1 X64.112 Y82.185 E0.21441
G1 X63.477 Y83.073 E0.30155
G1 X62.907 Y84.021 E0.38985
G1 X62.447 Y84.915 E0.4701
G1 X62.028 Y85.903 E0.55577
G1 X61.688 Y86.907 E0.64038
G1 X61.404 Y88.011 E0.73138
G1 X61.241 Y88.893 E0.80298
G1 X61.116 Y89.967 E0.88929
G1 X61.068 Y91.117 E0.98116
G1 X61.069 Y103.441 E1.96492
G1 X61.096 Y104.422 E2.04326
G1 X61.087 Y104.433 E2.04439
G1 X61.113 Y104.774 E2.07169
G1 X61.059 Y105.503 E2.13004
G1 X60.924 Y106.156 E2.18327
G1 X60.705 Y106.794 E2.23711
G1 X60.412 Y107.399 E2.29077
G1 X59.991 Y108.136 E2.35852
G1 X59.537 Y109 E2.43643
G1 X58.896 Y110.365 E2.55681
G1 X58.533 Y111.357 E2.64113
G1 X58.228 Y112.442 E2.7311
G1 X57.97 Y113.497 E2.81779
G1 X57.709 Y114.832 E2.92638
G1 X57.602 Y115.806 E3.00459
G1 X57.555 Y116.955 E3.09639
G1 X57.554 Y117.998 E3.17965
G1 X57.62 Y119.448 E3.29551
G1 X57.76 Y120.494 E3.37975
G1 X57.974 Y121.521 E3.46349
G1 X58.23 Y122.569 E3.54961
G1 X58.64 Y123.955 E3.66498
G1 X59.033 Y124.957 E3.7509
G1 X59.527 Y125.979 E3.84151
G1 X60.035 Y126.944 E3.92856
G1 X60.657 Y128.002 E4.02653
G1 X61.124 Y128.721 E4.09497
G1 X61.425 Y129.337 E4.1497
G1 X61.643 Y129.968 E4.20299
G1 X61.784 Y130.649 E4.2585
G1 X61.835 Y131.297 E4.31039
G1 X61.804 Y131.994 E4.36608
G1 X61.75 Y132.533 E4.40932
G1 X61.713 Y133.533 E4.4892
G1 X61.714 Y145.858 E5.47303
G1 X61.743 Y146.746 E5.54395
G1 X61.832 Y147.719 E5.62195
G1 X61.994 Y148.695 E5.70092
G1 X62.26 Y149.821 E5.79328
G1 X62.583 Y150.826 E5.87754
G1 X63.016 Y151.885 E5.96887
G1 X63.496 Y152.848 E6.05476
G1 X63.939 Y153.606 E6.12484
G1 X64.589 Y154.563 E6.21719
G1 X65.267 Y155.409 E6.30373
G1 X66.01 Y156.208 E6.39083
G1 X66.545 Y156.742 E6.45117
G1 X67.162 Y157.319 E6.5186
G1 X67.94 Y157.964 E6.59927
G1 X68.799 Y158.577 E6.68351
G1 X69.775 Y159.165 E6.77446
G1 X70.654 Y159.617 E6.85336
G1 X71.632 Y160.033 E6.9382
G1 X72.732 Y160.399 E7.03074
G1 X73.752 Y160.661 E7.1148
G1 X74.644 Y160.825 E7.1872
G1 X75.704 Y160.947 E7.27237
G1 X76.837 Y160.994 E7.36289
G1 X96.768 Y160.994 E8.95387
G1 X97.64 Y160.965 E9.02351
G1 X98.638 Y160.874 E9.10351
G1 X99.61 Y160.713 E9.18215
G1 X100.782 Y160.434 E9.27832
G1 X101.459 Y160.293 E9.33352
G1 X102.121 Y160.242 E9.38652
G1 X102.826 Y160.277 E9.44287
G1 X103.484 Y160.394 E9.49622
G1 X104.146 Y160.602 E9.55161
G1 X104.682 Y160.847 E9.59865
G1 X105.741 Y161.378 E9.69322
G1 X106.509 Y161.708 E9.75994
G1 X107.531 Y162.075 E9.84662
G1 X108.704 Y162.392 E9.94362
G1 X109.609 Y162.57 E10.01724
G1 X110.479 Y162.706 E10.08753
G1 X111.809 Y162.852 E10.19434
G1 X112.881 Y162.879 E10.27994
G1 X114.008 Y162.82 E10.37002
G1 X114.962 Y162.703 E10.44674
G1 X115.704 Y162.587 E10.50669
G1 X116.603 Y162.416 E10.57974
G1 X117.483 Y162.194 E10.65219
G1 X118.512 Y161.86 E10.73855
G1 X119.635 Y161.4 E10.83542
G1 X120.394 Y161.023 E10.90307
G1 X121.323 Y160.495 E10.98836
G1 X122.079 Y159.994 E11.06076
G1 X122.99 Y159.299 E11.15222
G1 X123.844 Y158.524 E11.24428
G1 X124.527 Y157.815 E11.32286
G1 X125.263 Y156.917 E11.41555
G1 X125.829 Y156.123 E11.49338
G1 X126.417 Y155.146 E11.58441
G1 X126.861 Y154.284 E11.66181
G1 X127.25 Y153.371 E11.74102
G1 X127.625 Y152.285 E11.83274
G1 X127.898 Y151.239 E11.91903
G1 X128.088 Y150.202 E12.00319
G1 X128.205 Y149.139 E12.08855
G1 X128.245 Y148.069 E12.17402
G1 X128.244 Y144.582 E12.45237
G1 X128.225 Y143.902 E12.50667
G1 X128.152 Y142.978 E12.58066
G1 X128.121 Y142.7 E12.60299
G1 X128.093 Y141.822 E12.67311
G1 X128.171 Y141.137 E12.72814
G1 X128.342 Y140.449 E12.78473
G1 X128.58 Y139.843 E12.8367
G1 X128.909 Y139.232 E12.8921
G1 X129.321 Y138.66 E12.94837
G1 X129.773 Y138.176 E13.00123
G1 X130.283 Y137.75 E13.05427
G1 X130.865 Y137.376 E13.1095
G1 X131.47 Y137.088 E13.16298
G1 X132.127 Y136.87 E13.21824
G1 X132.819 Y136.739 E13.27446
G1 X133.459 Y136.698 E13.32565
G1 X158.234 Y136.697 E15.3033
G1 X159.04 Y136.675 E15.36766
G1 X160.088 Y136.585 E15.45163
G1 X161.092 Y136.463 E15.53236
G1 X162.511 Y136.222 E15.64725
G1 X163.467 Y135.976 E15.72605
G1 X164.61 Y135.596 E15.8222
G1 X165.655 Y135.195 E15.91155
G1 X166.859 Y134.672 E16.01633
G1 X167.732 Y134.202 E16.09547
G1 X168.765 Y133.548 E16.19307
G1 X169.546 Y133.009 E16.26882
G1 X170.742 Y132.102 E16.38864
G1 X171.527 Y131.388 E16.47334
G1 X172.249 Y130.631 E16.55685
G1 X173.025 Y129.753 E16.65038
G1 X173.874 Y128.696 E16.7586
G1 X174.464 Y127.82 E16.84291
G1 X174.982 Y126.914 E16.92622
G1 X175.465 Y125.995 E17.00909
G1 X176.104 Y124.635 E17.12904
G1 X176.467 Y123.642 E17.21343
G1 X176.775 Y122.548 E17.30416
G1 X177.031 Y121.501 E17.39019
G1 X177.291 Y120.168 E17.49861
G1 X177.398 Y119.194 E17.57682
G1 X177.446 Y118.047 E17.66846
G1 X177.446 Y117.423 E17.71827
G1 X177.446 Y117.004 E17.75172
G1 X177.38 Y115.556 E17.86742
G1 X177.24 Y114.503 E17.95222
G1 X177.026 Y113.481 E18.03557
G1 X176.768 Y112.429 E18.12203
G1 X176.353 Y111.028 E18.23867
G1 X175.968 Y110.045 E18.32294
G1 X175.531 Y109.133 E18.40367
G1 X175.028 Y108.17 E18.49039
G1 X174.284 Y106.898 E18.60802
G1 X173.617 Y105.967 E18.69944
G1 X173.017 Y105.238 E18.77481
G1 X172.318 Y104.445 E18.85919
G1 X171.278 Y103.374 E18.97836
G1 X170.532 Y102.728 E19.05713
G1 X169.634 Y102.052 E19.14685
G1 X168.772 Y101.456 E19.23051
G1 X167.523 Y100.676 E19.34805
G1 X166.572 Y100.192 E19.43323
G1 X165.512 Y99.746 E19.52503
G1 X164.589 Y99.396 E19.60383
G1 X163.249 Y98.959 E19.71634
G1 X162.273 Y98.73 E19.79636
G1 X162.05 Y98.685 E19.81452
G1 X161.464 Y98.535 E19.8628
G1 X160.865 Y98.301 E19.91414
G1 X160.252 Y97.974 E19.9696
G1 X159.687 Y97.57 E20.02504
G1 X159.187 Y97.106 E20.07949
G1 X158.758 Y96.594 E20.13281
G1 X158.375 Y95.994 E20.18963
G1 X158.086 Y95.377 E20.24402
G1 X157.873 Y94.729 E20.29847
G1 X157.752 Y94.093 E20.35015
G1 X157.706 Y93.414 E20.40447
G1 X157.706 Y90.117 E20.66765
G1 X157.685 Y89.392 E20.72555
G1 X157.586 Y88.255 E20.81665
G1 X157.425 Y87.283 E20.8953
G1 X157.158 Y86.153 E20.98799
G1 X156.834 Y85.146 E21.07243
G1 X156.402 Y84.09 E21.1635
G1 X155.924 Y83.13 E21.24911
G1 X155.431 Y82.289 E21.32692
G1 X154.822 Y81.405 E21.41261
G1 X154.095 Y80.509 E21.50472
G1 X153.418 Y79.779 E21.58419
G1 X152.875 Y79.236 E21.64549
G1 X152.259 Y78.661 E21.71275
G1 X151.498 Y78.027 E21.79182
G1 X150.622 Y77.401 E21.87777
G1 X149.645 Y76.813 E21.96879
G1 X148.765 Y76.361 E22.04776
G1 X147.78 Y75.943 E22.13317
G1 X146.776 Y75.603 E22.21779
G1 X145.672 Y75.319 E22.30878
G1 X144.79 Y75.156 E22.38038
G1 X143.716 Y75.031 E22.46669
G1 X142.584 Y74.985 E22.55712
G1 X122.629 Y74.984 E24.15002
G1 X121.781 Y75.012 E24.21775
G1 X120.893 Y75.091 E24.28891
G1 X119.822 Y75.261 E24.37547
G1 X118.62 Y75.55 E24.47416
G1 X117.702 Y75.843 E24.55108
G1 X116.631 Y76.28 E24.64341
G1 X115.826 Y76.674 E24.71495
G1 X115.462 Y76.878 E24.74826
G1 X114.6 Y77.282 E24.82425
G1 X113.911 Y77.482 E24.88152
G1 X113.243 Y77.586 E24.93549
G1 X112.595 Y77.606 E24.98724
G1 X111.898 Y77.541 E25.04312
G1 X111.598 Y77.493 E25.06737
G1 X110.131 Y77.33 E25.18519
G1 X109.072 Y77.305 E25.26975
G1 X108.004 Y77.357 E25.3551
G1 X106.961 Y77.485 E25.43898
G1 X106.257 Y77.596 E25.49587
G1 X105.615 Y77.726 E25.54816
G1 X104.898 Y77.823 E25.60592
G1 X104.213 Y77.825 E25.6606
G1 X103.528 Y77.738 E25.71572
G1 X102.874 Y77.57 E25.76962
G1 X102.347 Y77.362 E25.81484
G1 X101.432 Y76.975 E25.89415
G1 X100.347 Y76.6 E25.98578
G1 X99.235 Y76.314 E26.07744
G1 X98.27 Y76.135 E26.15578
G1 X97.278 Y76.026 E26.23544
G1 X96.147 Y75.98 E26.3258
G1 X76.192 Y75.979 E27.91869
G1 X75.344 Y76.007 E27.98642
G1 X74.456 Y76.086 E28.05758
G1 X73.385 Y76.256 E28.14415
G1 X72.183 Y76.545 E28.24283
G1 X71.265 Y76.838 E28.31975
G1 X70.195 Y77.274 E28.41198
G1 X69.241 Y77.747 E28.49698
G1 X68.457 Y78.203 E28.56938
G1 X67.513 Y78.846 E28.66055
G1 X66.681 Y79.509 E28.74547
G1 X65.926 Y80.207 E28.82755
G0 F12000 X66.575 Y80.151
G1 F1800 X127.748 Y141.324 E35.73329
G0 F12000 X128.267 Y139.581
G1 F1800 X67.812 Y79.125 E42.55803
G0 F12000 X69.188 Y78.239
G1 F1800 X129.179 Y138.23 E49.33033
G0 F12000 X130.407 Y137.195
G1 F1800 X70.708 Y77.496 E56.06967
G0 F12000 X72.382 Y76.908
G1 F1800 X131.974 Y136.499 E62.79687
G0 F12000 X134.034 Y136.297
G1 F1800 X74.258 Y76.521 E69.5449
G0 F12000 X76.378 Y76.378
G1 F1800 X136.297 Y136.297 E76.30908
G0 F12000 X138.56 Y136.297
G1 F1800 X78.641 Y76.378 E83.07325
G0 F12000 X80.904 Y76.378
G1 F1800 X140.823 Y136.297 E89.83743
G0 F12000 X143.085 Y136.297
G1 F1800 X83.167 Y76.379 E96.60149
G0 F12000 X85.43 Y76.379
G1 F1800 X145.348 Y136.297 E103.36555
G0 F12000 X147.61 Y136.296
G1 F1800 X87.693 Y76.379 E110.1295
G0 F12000 X89.956 Y76.38
G1 F1800 X149.873 Y136.296 E116.89339
G0 F12000 X152.136 Y136.296
G1 F1800 X92.219 Y76.38 E123.65728
G0 F12000 X94.482 Y76.38
G1 F1800 X154.398 Y136.296 E130.42112
G0 F12000 X156.661 Y136.296
G1 F1800 X96.77 Y76.405 E137.18213
G0 F12000 X99.395 Y76.768
G1 F1800 X158.904 Y136.277 E143.90002
G0 F12000 X160.965 Y136.074
G1 F1800 X102.872 Y77.982 E150.45801
G0 F12000 X105.32 Y78.167
G1 F1800 X162.869 Y135.716 E156.95463
G0 F12000 X164.589 Y135.174
G1 F1800 X107.265 Y77.85 E163.42586
G0 F12000 X109.391 Y77.713
G1 F1800 X166.199 Y134.521 E169.83884
G0 F12000 X167.693 Y133.752
G1 F1800 X111.884 Y77.943 E176.13904
G0 F12000 X114.059 Y77.855
G1 F1800 X169.06 Y132.856 E182.34803
G0 F12000 X170.357 Y131.89
G1 F1800 X115.679 Y77.212 E188.52056
G0 F12000 X117.206 Y76.477
G1 F1800 X171.532 Y130.802 E194.65329
G0 F12000 X172.61 Y129.618
G1 F1800 X118.889 Y75.897 E200.71778
G0 F12000 X120.77 Y75.515
G1 F1800 X173.616 Y128.361 E206.68349
G0 F12000 X174.488 Y126.97
G1 F1800 X122.902 Y75.384 E212.50697
G0 F12000 X125.164 Y75.384
G1 F1800 X175.263 Y125.483 E218.16257
G0 F12000 X175.945 Y123.902
G1 F1800 X127.427 Y75.384 E223.63971
G0 F12000 X129.69 Y75.384
G1 F1800 X176.459 Y122.153 E228.91939
G0 F12000 X176.858 Y120.29
G1 F1800 X131.953 Y75.384 E233.98871
G0 F12000 X134.215 Y75.384
G1 F1800 X177.038 Y118.207 E238.82295
G0 F12000 X176.995 Y115.901
G1 F1800 X136.478 Y75.384 E243.39685
G0 F12000 X138.741 Y75.384
G1 F1800 X157.341 Y93.985 E245.49664
G0 F12000 X157.305 Y91.686
G1 F1800 X141.004 Y75.384 E247.33689
G0 F12000 X143.296 Y75.414
G1 F1800 X157.283 Y89.401 E248.91587
G0 F12000 X156.885 Y86.74
G1 F1800 X145.948 Y75.803 E250.15053
G0 F12000 X149.754 Y77.346
G1 F1800 X155.349 Y82.941 E250.78214
G1 F2700 E245.78214
G0 F12000 X156.853 Y82.612
G0 X157.441 Y83.806
G0 X162.499 Y97.688
G0 X162.567 Y99.21
G1 F2700 E250.78214
G1 F1800 X176.541 Y113.184 E252.35965
G0 F12000 X175.393 Y109.774
G1 F1800 X166.008 Y100.389 E253.41911
G1 F2700 E248.41911
G0 F12000 X166.578 Y99.038
G0 X168.156 Y99.815
G0 X170.26 Y101.19
G0 X171.922 Y102.522
G0 X173.831 Y104.551
G0 X175.11 Y106.222
G0 X176.483 Y108.659
G0 X177.319 Y110.574
G0 X178.067 Y113.249
G0 X178.424 Y115.336
G0 X178.51 Y118.065
G0 X178.357 Y120.219
G0 X177.806 Y122.816
G0 X177.129 Y124.93
G0 X175.914 Y127.43
G0 X174.792 Y129.24
G0 X173.032 Y131.354
G0 X171.502 Y132.851
G0 X169.23 Y134.518
G0 X167.43 Y135.574
G0 X164.878 Y136.629
G0 X163.07 Y137.169
G0 X129.263 Y143.526
G0 X127.803 Y143.642
G1 F2700 E253.41911
G1 F1800 X65.433 Y81.272 E260.45997
G0 F12000 X64.385 Y82.487
G1 F1800 X127.844 Y145.946 E267.62377
G0 F12000 X127.839 Y148.204
G1 F1800 X63.479 Y83.844 E274.88929
G0 F12000 X62.703 Y85.33
G1 F1800 X127.665 Y150.292 E282.22276
G0 F12000 X127.249 Y152.139
G1 F1800 X62.086 Y86.976 E289.57892
G0 F12000 X61.661 Y88.814
G1 F1800 X126.637 Y153.79 E296.91397
G0 F12000 X125.867 Y155.282
G1 F1800 X61.477 Y90.892 E304.18287
G0 F12000 X61.468 Y93.146
G1 F1800 X124.966 Y156.644 E311.35108
G0 F12000 X123.923 Y157.865
G1 F1800 X61.468 Y95.409 E318.40159
G0 F12000 X61.468 Y97.671
G1 F1800 X122.76 Y158.964 E325.32082
G0 F12000 X121.458 Y159.924
G1 F1800 X61.468 Y99.934 E332.09301
G0 F12000 X61.468 Y102.197
G1 F1800 X120.027 Y160.757 E338.70371
G0 F12000 X118.456 Y161.448
G1 F1800 X61.491 Y104.483 E345.13441
G0 F12000 X61.231 Y106.486
G1 F1800 X116.717 Y161.972 E351.39815
G0 F12000 X114.8 Y162.318
G1 F1800 X60.511 Y108.028 E357.52682
G0 F12000 X59.735 Y109.515
G1 F1800 X112.693 Y162.473 E363.50518
G0 F12000 X110.215 Y162.258
G1 F1800 X59.054 Y111.097 E369.28067
G0 F12000 X58.54 Y112.846
G1 F1800 X107.238 Y161.544 E374.77812
G0 F12000 X103.403 Y159.972
G1 F1800 X58.14 Y114.708 E379.88786
G0 F12000 X57.961 Y116.792
G1 F1800 X101.122 Y159.953 E384.76024
G0 F12000 X99.269 Y160.363
G1 F1800 X58.003 Y119.097 E389.41871
G0 F12000 X58.456 Y121.813
G1 F1800 X97.22 Y160.577 E393.79472
G0 F12000 X94.973 Y160.593
G1 F1800 X59.608 Y125.227 E397.78709
G1 F2700 E392.78709
G0 F12000 X58.516 Y126.34
G0 X60.614 Y130.25
G0 X62.043 Y129.925
G1 F2700 E397.78709
G1 F1800 X92.71 Y160.593 E401.2491
G0 F12000 X90.448 Y160.593
G1 F1800 X62.173 Y132.318 E404.44102
G0 F12000 X62.112 Y134.52
G1 F1800 X88.185 Y160.593 E407.38437
G0 F12000 X85.922 Y160.593
G1 F1800 X62.112 Y136.783 E410.07225
G0 F12000 X62.112 Y139.046
G1 F1800 X83.659 Y160.593 E412.50466
G0 F12000 X81.397 Y160.593
G1 F1800 X62.112 Y141.308 E414.68172
G0 F12000 X62.112 Y143.571
G1 F1800 X79.134 Y160.593 E416.60331
G0 F12000 X76.871 Y160.593
G1 F1800 X62.112 Y145.834 E418.26943
G0 F12000 X62.337 Y148.321
G1 F1800 X74.385 Y160.369 E419.62951
G0 F12000 X71.143 Y159.39
G1 F1800 X63.316 Y151.563 E420.51309
G1 F2700 E415.51309
G0 F300 X63.316 Y151.563 Z0.48
G0 F12000 X62.049 Y152.332
G0 X63.033 Y154.166
G0 X63.815 Y155.3
G0 X65.246 Y156.95
G0 X66.464 Y158.123
G0 X68.106 Y159.391
G0 X69.265 Y160.1
G0 X71.141 Y160.981
G0 X72.439 Y161.425
G0 X74.476 Y161.877
G0 X75.788 Y162.021
G0 X113.003 Y163.939
G0 X115.217 Y163.743
G0 X116.843 Y163.454
G0 X118.872 Y162.861
G0 X120.898 Y161.963
G0 X122.687 Y160.868
G0 X123.748 Y160.049
G0 X125.236 Y158.613
G0 X125.484 Y158.314
G0 X126.612 Y156.861
G0 X125.418 Y156.009
;TIME_ELAPSED:195.278072
;LAYER:-5
;TYPE:SUPPORT
G1 F2700 E420.51309
G1 F1800 X121.599 Y159.828 E420.94422
G1 X121.978 Y159.574 E420.98063
G1 X122.675 Y159.035 E421.05097
G1 X123.515 Y158.287 E421.14075
G1 X124.211 Y157.564 E421.22086
G1 X124.899 Y156.738 E421.30667
G1 X125.493 Y155.905 E421.38834
G1 X126.059 Y154.97 E421.47558
G1 X126.467 Y154.173 E421.54706
G1 X126.942 Y153.071 E421.64285
G1 X118.639 Y161.374 E422.58016
G1 X118.385 Y161.478 E422.60207
G1 X117.377 Y161.809 E422.68676
G1 X116.592 Y162.007 E422.75138
G1 X127.521 Y151.079 E423.98509
G1 X127.694 Y150.146 E424.06083
G1 X127.769 Y149.416 E424.11941
G1 X114.874 Y162.311 E425.57511
G1 X113.972 Y162.421 E425.64765
G1 X113.315 Y162.456 E425.70017
G1 X127.844 Y147.926 E427.34038
G1 X127.844 Y146.513 E427.45317
G1 X111.902 Y162.454 E429.25279
G1 X110.626 Y162.316 E429.35524
G1 X127.843 Y145.099 E431.29884
G1 X127.843 Y144.576 E431.34059
